src/lib/packages/icons/src/assets/line/exchange-horizontal-square.svg

<svg width="24" height="24" viewBox="0 0 24 24" fill="none" xmlns="http://www.w3.org/2000/svg">
<path d="M17.625 2.25H6.375C3.715 2.25 2.25 3.715 2.25 6.375V17.625C2.25 20.285 3.715 21.75 6.375 21.75H17.625C20.285 21.75 21.75 20.285 21.75 17.625V6.375C21.75 3.715 20.285 2.25 17.625 2.25ZM20.25 17.625C20.25 19.465 19.465 20.25 17.625 20.25H6.375C4.535 20.25 3.75 19.465 3.75 17.625V6.375C3.75 4.535 4.535 3.75 6.375 3.75H17.625C19.465 3.75 20.25 4.535 20.25 6.375V17.625ZM17.1931 13.0649C17.3081 13.3449 17.245 13.6681 17.03 13.8821L14.3301 16.582C14.1841 16.728 13.992 16.802 13.8 16.802C13.608 16.802 13.416 16.729 13.27 16.582C12.977 16.289 12.977 15.814 13.27 15.521L14.6899 14.1021H9.30005C8.88605 14.1021 8.55005 13.7661 8.55005 13.3521C8.55005 12.9381 8.88605 12.6021 9.30005 12.6021H16.5C16.804 12.6021 17.0771 12.7849 17.1931 13.0649ZM14.7 11.4021H7.5C7.196 11.4021 6.92288 11.219 6.80688 10.939C6.69188 10.659 6.75497 10.3361 6.96997 10.1221L9.66992 7.42212C9.96292 7.12912 10.438 7.12912 10.731 7.42212C11.024 7.71512 11.024 8.18991 10.731 8.48291L9.31104 9.90308H14.7009C15.1149 9.90308 15.4509 10.2391 15.4509 10.6531C15.4509 11.0671 15.114 11.4021 14.7 11.4021Z" fill="currentColor"/>
</svg>

<svg xmlns="http://www.w3.org/2000/svg" width="24" height="24" fill="none"><path fill="currentColor" d="M17.625 2.25H6.375c-2.66 0-4.125 1.465-4.125 4.125v11.25c0 2.66 1.465 4.125 4.125 4.125h11.25c2.66 0 4.125-1.465 4.125-4.125V6.375c0-2.66-1.465-4.125-4.125-4.125Zm2.625 15.375c0 1.84-.785 2.625-2.625 2.625H6.375c-1.84 0-2.625-.785-2.625-2.625V6.375c0-1.84.785-2.625 2.625-2.625h11.25c1.84 0 2.625.785 2.625 2.625v11.25Zm-3.057-4.56a.75.75 0 0 1-.163.817l-2.7 2.7a.748.748 0 0 1-1.06 0 .75.75 0 0 1 0-1.061l1.42-1.419H9.3a.75.75 0 0 1 0-1.5h7.2a.75.75 0 0 1 .693.463ZM14.7 11.402H7.5a.75.75 0 0 1-.53-1.28l2.7-2.7a.75.75 0 0 1 1.061 1.06l-1.42 1.421h5.39a.75.75 0 1 1-.001 1.5Z"/></svg>
